X:1
T:Annie's Carafe
R:jig
M:6/8
L:1/8
K:D
|:agf ~g2e|fed ecA|~d2d fed|ecA efg|
|agf ~g2e|fed ecA|~d2d faf|1 gec dfg:|2 gec d3|]
|:cde gcd|efd cBA|dfa afa|geg fed|
|Bcd egf|efd cBA|afa gec|1 Adc d3:|2 Adc dfg|]